src/icons/library-jquery.svg

<svg fill="#000000" xmlns="http://www.w3.org/2000/svg"  viewBox="0 0 50 50" width="50px" height="50px"><path d="M 29.867188 3.007813 C 29.761719 3.023438 29.65625 3.054688 29.554688 3.101563 C 28.695313 3.527344 27.71875 4.792969 27.53125 5.042969 C 27.519531 5.058594 27.507813 5.074219 27.5 5.089844 C 26.535156 6.535156 26.019531 8.226563 26 9.988281 C 25.988281 11.308594 26.246094 12.617188 26.769531 13.878906 C 27.988281 16.804688 30.519531 19.226563 33.53125 20.359375 C 33.632813 20.394531 33.730469 20.429688 33.90625 20.492188 C 33.921875 20.5 34.070313 20.546875 34.09375 20.550781 L 34.203125 20.589844 C 34.359375 20.640625 34.519531 20.691406 34.675781 20.722656 C 35.46875 20.882813 36.242188 20.972656 36.96875 20.996094 C 37.09375 20.996094 37.21875 21 37.34375 21 C 42.824219 21 44.949219 17.132813 45.65625 15.84375 C 45.726563 15.71875 45.777344 15.617188 45.824219 15.554688 C 45.824219 15.550781 45.824219 15.550781 45.828125 15.546875 C 46.136719 15.089844 46.019531 14.46875 45.5625 14.15625 C 45.109375 13.847656 44.488281 13.964844 44.175781 14.421875 C 44.175781 14.421875 44.171875 14.421875 44.171875 14.421875 C 42.710938 16.574219 40.210938 17.226563 36.746094 16.367188 C 36.488281 16.304688 36.207031 16.207031 35.957031 16.113281 C 35.628906 15.996094 35.300781 15.859375 34.996094 15.710938 C 34.390625 15.410156 33.820313 15.050781 33.304688 14.652344 C 30.257813 12.289063 29.066406 7.371094 30.847656 4.53125 C 31.085938 4.152344 31.042969 3.660156 30.742188 3.328125 C 30.515625 3.078125 30.1875 2.964844 29.867188 3.007813 Z M 21.007813 5 C 20.78125 4.996094 20.550781 5.070313 20.363281 5.226563 C 18.851563 6.457031 17.304688 8.472656 17.238281 8.554688 C 17.230469 8.570313 17.222656 8.582031 17.210938 8.597656 C 14.476563 12.578125 14.269531 18.242188 16.6875 23.027344 C 17.066406 23.785156 17.496094 24.507813 17.953125 25.171875 L 18.089844 25.367188 C 18.476563 25.933594 18.910156 26.574219 19.464844 27.074219 C 19.65625 27.292969 19.863281 27.503906 20.066406 27.707031 L 20.164063 27.808594 L 20.246094 27.890625 C 20.453125 28.089844 20.664063 28.292969 20.882813 28.488281 C 20.882813 28.488281 20.886719 28.488281 20.886719 28.488281 C 20.902344 28.511719 20.925781 28.527344 20.945313 28.546875 C 21.191406 28.765625 21.441406 28.972656 21.773438 29.234375 L 21.863281 29.300781 C 22.121094 29.507813 22.382813 29.703125 22.652344 29.894531 C 22.679688 29.914063 22.707031 29.933594 22.734375 29.953125 C 22.828125 30.015625 22.921875 30.074219 23.015625 30.140625 L 23.109375 30.203125 L 23.21875 30.273438 C 23.417969 30.40625 23.613281 30.527344 23.890625 30.6875 C 24.070313 30.796875 24.261719 30.90625 24.386719 30.96875 C 24.441406 31 24.5 31.03125 24.636719 31.105469 L 24.941406 31.265625 C 24.957031 31.273438 25.027344 31.304688 25.042969 31.3125 C 25.242188 31.414063 25.449219 31.511719 25.65625 31.605469 L 25.972656 31.746094 C 26.179688 31.835938 26.390625 31.921875 26.648438 32.019531 L 26.765625 32.0625 C 26.773438 32.070313 26.871094 32.105469 26.878906 32.109375 C 27.066406 32.175781 27.257813 32.242188 27.449219 32.304688 L 27.886719 32.449219 C 28.105469 32.523438 28.359375 32.609375 28.636719 32.65625 C 30 32.882813 31.324219 33 32.578125 33 C 32.726563 33 32.875 32.996094 33.019531 32.996094 C 44.058594 32.753906 46.929688 23.375 46.957031 23.28125 C 47.09375 22.808594 46.871094 22.304688 46.425781 22.09375 C 45.980469 21.882813 45.449219 22.03125 45.171875 22.4375 C 42.375 26.523438 37.085938 28.25 31.699219 26.828125 C 31.449219 26.765625 31.207031 26.695313 30.90625 26.597656 C 30.855469 26.582031 30.8125 26.566406 30.730469 26.535156 C 30.554688 26.480469 30.382813 26.421875 30.1875 26.347656 L 29.910156 26.242188 C 29.75 26.179688 29.589844 26.117188 29.394531 26.03125 L 29.265625 25.972656 C 29.027344 25.871094 28.796875 25.757813 28.589844 25.65625 L 28.019531 25.359375 C 27.890625 25.296875 27.777344 25.226563 27.601563 25.121094 L 27.503906 25.066406 L 27.40625 25.007813 C 27.261719 24.921875 27.117188 24.832031 26.984375 24.738281 L 26.890625 24.679688 C 26.882813 24.675781 26.804688 24.621094 26.796875 24.613281 C 26.679688 24.539063 26.566406 24.464844 26.457031 24.394531 C 26.214844 24.222656 25.976563 24.042969 25.699219 23.824219 L 25.589844 23.734375 C 23.011719 21.675781 21.105469 18.925781 20.210938 15.976563 C 19.378906 13.269531 19.996094 9.726563 21.863281 6.5 C 22.105469 6.082031 22.015625 5.550781 21.644531 5.238281 C 21.460938 5.082031 21.234375 5 21.007813 5 Z M 10.003906 8 C 9.765625 8 9.523438 8.085938 9.332031 8.257813 C 7.421875 9.972656 5.992188 12.195313 5.835938 12.449219 C 1.75 18.398438 2.539063 27.644531 5.34375 33.296875 C 5.398438 33.414063 5.457031 33.527344 5.515625 33.640625 L 5.554688 33.703125 C 5.605469 33.816406 5.664063 33.933594 5.683594 33.957031 C 5.714844 34.03125 5.761719 34.113281 5.78125 34.136719 C 5.828125 34.234375 5.875 34.320313 5.960938 34.46875 L 6.28125 35.019531 C 6.328125 35.09375 6.375 35.171875 6.390625 35.199219 C 6.453125 35.300781 6.519531 35.40625 6.585938 35.511719 L 6.742188 35.761719 C 6.789063 35.835938 6.835938 35.902344 6.867188 35.941406 C 7.023438 36.183594 7.179688 36.425781 7.351563 36.65625 C 7.359375 36.667969 7.367188 36.675781 7.375 36.683594 L 7.4375 36.769531 C 7.578125 36.972656 7.722656 37.167969 7.851563 37.328125 L 8.421875 38.050781 C 8.429688 38.058594 8.492188 38.132813 8.496094 38.140625 L 8.578125 38.234375 C 8.75 38.445313 8.933594 38.65625 9.117188 38.859375 C 9.144531 38.890625 9.171875 38.917969 9.199219 38.949219 C 9.375 39.140625 9.554688 39.332031 9.742188 39.53125 L 9.921875 39.703125 C 10.070313 39.859375 10.21875 40.011719 10.375 40.15625 C 10.375 40.160156 10.449219 40.230469 10.449219 40.230469 L 10.605469 40.375 C 10.792969 40.554688 10.988281 40.734375 11.136719 40.859375 C 11.144531 40.871094 11.285156 40.992188 11.296875 41 C 11.480469 41.164063 11.664063 41.320313 11.851563 41.472656 L 12.808594 42.230469 C 12.96875 42.347656 13.132813 42.464844 13.320313 42.601563 C 13.382813 42.648438 13.449219 42.695313 13.515625 42.738281 C 13.542969 42.761719 13.574219 42.785156 13.59375 42.796875 L 14.3125 43.277344 C 14.574219 43.449219 14.835938 43.609375 15.15625 43.800781 L 15.328125 43.898438 C 15.527344 44.015625 15.730469 44.132813 15.921875 44.234375 C 16.035156 44.296875 16.148438 44.351563 16.246094 44.402344 C 16.382813 44.476563 16.53125 44.558594 16.757813 44.667969 C 16.777344 44.679688 16.9375 44.757813 16.957031 44.765625 C 17.183594 44.878906 17.414063 44.984375 17.703125 45.113281 C 17.703125 45.117188 17.796875 45.160156 17.796875 45.160156 C 18.0625 45.273438 18.320313 45.382813 18.660156 45.519531 C 18.714844 45.542969 18.769531 45.5625 18.78125 45.566406 C 19.023438 45.660156 19.277344 45.753906 19.484375 45.828125 C 19.503906 45.835938 19.609375 45.878906 19.628906 45.886719 C 19.90625 45.980469 20.179688 46.070313 20.53125 46.179688 C 20.589844 46.199219 20.652344 46.21875 20.660156 46.21875 L 20.859375 46.28125 C 21.101563 46.355469 21.34375 46.433594 21.605469 46.484375 C 23.464844 46.824219 25.28125 47 27 47 L 27.003906 47 C 41.328125 47 45.890625 35.472656 45.9375 35.355469 C 46.113281 34.890625 45.921875 34.367188 45.484375 34.125 C 45.054688 33.886719 44.507813 34 44.203125 34.394531 C 40.527344 39.234375 33.59375 41.03125 25.65625 39.207031 C 25.464844 39.160156 25.269531 39.105469 25.078125 39.046875 L 24.703125 38.933594 C 24.449219 38.855469 24.195313 38.769531 23.949219 38.683594 C 23.945313 38.683594 23.832031 38.640625 23.832031 38.640625 C 23.613281 38.566406 23.394531 38.480469 23.203125 38.40625 L 22.984375 38.320313 C 22.742188 38.222656 22.5 38.121094 22.265625 38.015625 L 22.128906 37.957031 C 21.917969 37.859375 21.714844 37.765625 21.511719 37.664063 C 21.496094 37.65625 21.335938 37.578125 21.320313 37.574219 C 21.179688 37.503906 21.039063 37.429688 20.859375 37.332031 L 20.042969 36.894531 C 19.960938 36.839844 19.875 36.789063 19.792969 36.746094 C 19.546875 36.59375 19.292969 36.441406 19.042969 36.28125 C 18.984375 36.246094 18.933594 36.207031 18.835938 36.140625 C 18.664063 36.03125 18.496094 35.917969 18.25 35.746094 L 18.152344 35.675781 C 17.984375 35.558594 17.820313 35.433594 17.683594 35.332031 C 17.597656 35.269531 17.511719 35.199219 17.371094 35.09375 C 17.246094 34.996094 17.121094 34.902344 17.003906 34.808594 L 16.785156 34.628906 C 16.601563 34.480469 16.429688 34.324219 16.25 34.171875 C 16.226563 34.148438 16.207031 34.132813 16.179688 34.113281 C 15.980469 33.929688 15.777344 33.746094 15.535156 33.515625 L 14.828125 32.8125 C 14.65625 32.636719 14.484375 32.457031 14.289063 32.242188 C 14.109375 32.042969 13.9375 31.84375 13.707031 31.570313 L 13.285156 31.054688 C 13.234375 30.980469 13.179688 30.90625 13.113281 30.828125 C 12.96875 30.632813 12.824219 30.441406 12.679688 30.238281 C 8.789063 24.878906 7.773438 13.691406 10.804688 9.59375 C 11.109375 9.183594 11.054688 8.605469 10.671875 8.257813 C 10.484375 8.085938 10.242188 8 10.003906 8 Z"/></svg>

<svg xmlns="http://www.w3.org/2000/svg" width="50" height="50"><path d="M29.867 3.008c-.105.015-.21.047-.312.094-.86.425-1.836 1.691-2.024 1.941A8.965 8.965 0 0 0 26 9.988a9.875 9.875 0 0 0 .77 3.89c1.218 2.927 3.75 5.349 6.761 6.481l.375.133c.016.008.164.055.188.059l.11.039c.155.05.316.101.472.133.793.16 1.566.25 2.293.273.125 0 .25.004.375.004 5.48 0 7.605-3.867 8.312-5.156.07-.125.121-.227.168-.29 0-.003 0-.003.004-.007a1 1 0 1 0-1.652-1.125h-.004c-1.461 2.152-3.961 2.805-7.426 1.945a7.132 7.132 0 0 1-.789-.254 9.557 9.557 0 0 1-.96-.402c-.606-.3-1.177-.66-1.692-1.059-3.047-2.363-4.239-7.28-2.457-10.12a1 1 0 0 0-.98-1.524ZM21.007 5a.979.979 0 0 0-.644.227c-1.511 1.23-3.058 3.246-3.125 3.328a.263.263 0 0 1-.027.043c-2.734 3.98-2.941 9.644-.523 14.43.378.757.808 1.48 1.265 2.144l.137.195c.387.567.82 1.207 1.375 1.707.191.219.398.43.601.633l.098.102.082.082c.207.199.418.402.637.597h.004c.015.024.039.04.058.059.246.219.496.426.828.687l.09.067a16.646 16.646 0 0 0 .871.652c.094.063.188.121.282.188l.093.062.11.07c.199.133.394.254.672.415.18.109.37.218.496.28.054.032.113.063.25.137l.304.16.102.047c.2.102.406.2.613.293l.317.141c.207.09.418.176.675.274l.118.042c.007.008.105.043.113.047.187.067.379.133.57.196l.438.144c.218.074.472.16.75.207a24.16 24.16 0 0 0 3.941.344c.149 0 .297-.004.442-.004 11.039-.242 13.91-9.621 13.937-9.715a1.004 1.004 0 0 0-.531-1.187 1 1 0 0 0-1.254.343c-2.797 4.086-8.086 5.813-13.473 4.391-.25-.062-.492-.133-.793-.23a2.676 2.676 0 0 1-.176-.063 9.093 9.093 0 0 1-.543-.187l-.277-.106c-.16-.062-.32-.125-.515-.21l-.13-.06c-.238-.1-.468-.214-.675-.316l-.57-.297c-.13-.062-.243-.132-.418-.238l-.098-.055-.098-.058a6.482 6.482 0 0 1-.422-.27l-.093-.058a1.38 1.38 0 0 1-.094-.067l-.34-.218c-.242-.172-.48-.352-.758-.57l-.11-.09c-2.577-2.06-4.484-4.81-5.378-7.758-.832-2.707-.215-6.25 1.652-9.477a.995.995 0 0 0-.218-1.262.985.985 0 0 0-.637-.238ZM10.005 8c-.238 0-.48.086-.672.258-1.91 1.715-3.34 3.937-3.496 4.191-4.086 5.95-3.297 15.196-.492 20.848.054.117.113.23.172.344l.039.062c.05.113.11.23.129.254a.968.968 0 0 0 .097.18c.047.097.094.183.18.332l.32.55.11.18c.062.102.129.207.195.313l.156.25c.047.074.094.14.125.18.156.242.313.484.485.714.007.012.015.02.023.028l.063.086c.14.203.285.398.414.558l.57.723c.008.008.07.082.074.09l.082.093c.172.211.356.422.54.625.027.032.054.059.081.09.176.192.356.383.543.582l.18.172c.148.156.297.309.453.453 0 .004.074.074.074.074l.156.145c.188.18.383.36.532.484.008.012.148.133.16.141.183.164.367.32.555.473l.957.757c.16.118.324.235.511.372.063.046.13.093.196.136a.672.672 0 0 0 .078.059l.719.48c.261.172.523.332.843.524l.172.097c.2.118.402.235.594.336.113.063.226.118.324.168.137.075.285.157.512.266a18.4 18.4 0 0 0 .945.445c0 .004.094.047.094.047a42.158 42.158 0 0 0 .984.406c.242.094.496.188.703.262l.145.059a37.103 37.103 0 0 0 1.031.332l.2.062c.242.074.484.153.745.203 1.86.34 3.676.516 5.395.516h.004c14.324 0 18.887-11.527 18.933-11.645a1 1 0 0 0-1.734-.96c-3.676 4.84-10.61 6.636-18.547 4.812a10.624 10.624 0 0 1-.578-.16l-.375-.113a21.3 21.3 0 0 1-.754-.25c-.004 0-.117-.043-.117-.043-.219-.075-.437-.16-.629-.235l-.219-.086c-.242-.097-.484-.199-.718-.304l-.137-.059c-.211-.098-.414-.191-.617-.293a4.214 4.214 0 0 0-.192-.09c-.14-.07-.28-.144-.46-.242l-.817-.437a2.798 2.798 0 0 0-.25-.149c-.246-.152-.5-.305-.75-.465-.059-.035-.11-.074-.207-.14-.172-.11-.34-.223-.586-.395l-.098-.07c-.168-.117-.332-.242-.468-.344-.086-.062-.172-.133-.313-.238-.125-.098-.25-.192-.367-.285l-.219-.18c-.183-.149-.355-.305-.535-.457a.509.509 0 0 0-.07-.059c-.2-.183-.403-.367-.645-.597l-.707-.703a20.912 20.912 0 0 1-.539-.57c-.18-.2-.351-.4-.582-.673l-.422-.515a2.671 2.671 0 0 0-.172-.227c-.144-.195-.289-.387-.433-.59-3.89-5.36-4.907-16.547-1.875-20.644A1 1 0 0 0 10.004 8Z"/></svg>
